X: 15291
T: Girls In Boisdale, The
R: reel
M: 4/4
K: Adorian
|:z2|e2Be dG (3B^cd|ed (3B^cd edge|dG (3B^cd GAAG|DG (3B^cd GGBd|
deBe dG (3B^cd|ed (3B^cd eage|dged BedB|eABG A2:|
(3efg|gaeA A2 ga|eA A2 gaef|fgdB B2 AB|GG (3B^cd e2 zA|
gaeA A2 ga|eA A2 gaef|fgdB B2 AB|dGed BA A2|
gaeA A2 ga|eA A2 gaef|fgdB B2 AB|GG (3B^cd e2zd|
edBe dG (3B^cd|ed (3B^cd eage|dged BedB|eABG A2||

